X:380
T:Mancave Midden
M:C|
C:© Paul Gitlitz 2015
K:Am
"Am"a2e2c3A |"Em"B2Bc "G"AGAB|"Am"cBcd ede2|ea3 "C"g2 (3efg|!
"Am"a2e2c3A| "Em"BABc BAG2|"C"cege "Am"dc3|1A4- A2 (3efg:|2"Am"A4-A2CD|!
|:"Am"E4"C"G4|"Dm"D2DE "Am"DC3|"Am"A2AB "C"AG3|"Am"E4- EcBA|!
"Am"E4"C"G4 |"Dm"D2DE "Am"DC3|"C"G2E2 "G"DCB,2|1"Am"A,4- A,2CD:|2"Am"A,8|]
